X: 12808
T: February
R: reel
M: 4/4
K: Amajor
~F3 A Bc ~c2|ecBc eage|~f3 f {g} fecA|BdcB AFFE|
E ~F2 A Bc ~c2|eage ~f3 g|afge fecA|~B2 cB AF F E:|
bafb afec|Bcec ef ~f2|bafb a3 B|cABG Acea|
~b2 fb afec|Bc ec effg|afge fecA|~B cB AF F2:|

